X: 111203
Q: "Strathspey."
M: C
L: 1/16
K: D
[|\
vD3vE uF3uG vA3vB (AF3) | D3FA3F Ad3 df3 |\
g3fe3d ce3 ef3 ||\
vdud3 vf3ud va3vduf3ud | Ad3 fd3 bagf ef3 |
dd3 f3d a3df3d | Bd3 BAGF Ee3 ef3 |\
dd3 f3d a3df3d | Ad3 f3d bagf ef3 |\
df3 d3A Bd3 AF3 | A3G F3E Dd3 df3 |]


